docs/assets/icon_temperature_2.svg

<?xml version="1.0" encoding="UTF-8"?>
<svg width="24px" height="24px" viewBox="0 0 24 24" version="1.1" xmlns="http://www.w3.org/2000/svg" xmlns:xlink="http://www.w3.org/1999/xlink">
    <g id="Final" stroke="none" stroke-width="1" fill="none" fill-rule="evenodd">
        <rect fill="#F8F8F8" x="0" y="0" width="24" height="24"></rect>
        <g id="v1-2-1-home-dashboard" transform="translate(-925.000000, -365.000000)">
            <g id="scenarios" transform="translate(696.000000, 196.000000)">
                <g id="Widget-Copy-7" transform="translate(215.000000, 155.000000)">
                    <g id="icon_temperature" transform="translate(14.000000, 14.000000)">
                        <rect id="Rectangle" fill-rule="nonzero" x="0" y="0" width="24" height="24"></rect>
                        <g id="thermometer" transform="translate(7.000000, 1.000000)">
                            <path d="M7,13.76 L7,2.5 C7,1.11928813 5.88071187,0 4.5,0 C3.11928813,-2.22044605e-16 2,1.11928813 2,2.5 L2,13.76 C0.351885607,14.8611927 -0.381613186,16.911099 0.19375696,18.8079004 C0.769127106,20.7047019 2.51785305,22.0016574 4.5,22.0016574 C6.48214695,22.0016574 8.23087289,20.7047019 8.80624304,18.8079004 C9.38161319,16.911099 8.64811439,14.8611927 7,13.76 Z" id="Shape" stroke="#F5A623" stroke-width="2" stroke-linecap="round" stroke-linejoin="round"></path>
                            <circle id="Oval-2" fill="#FFD93E" fill-rule="nonzero" cx="4.5" cy="17.5" r="3.5"></circle>
                        </g>
                    </g>
                </g>
            </g>
        </g>
    </g>
</svg>

<?xml version="1.0" encoding="UTF-8"?> <svg version="1.1" viewBox="0 0 24 24" xmlns="http://www.w3.org/2000/svg"><g fill="none" fill-rule="evenodd"><rect width="24" height="24" fill="#F8F8F8"/><g transform="translate(-925 -365)"><g transform="translate(696 196)"><g transform="translate(215 155)"><g transform="translate(14 14)"><rect width="24" height="24" fill-rule="nonzero"/><g transform="translate(7 1)"><path d="m7 13.76v-11.26c0-1.3807-1.1193-2.5-2.5-2.5-1.3807-2.2204e-16 -2.5 1.1193-2.5 2.5v11.26c-1.6481 1.1012-2.3816 3.1511-1.8062 5.0479 0.57537 1.8968 2.3241 3.1938 4.3062 3.1938s3.7309-1.297 4.3062-3.1938c0.57537-1.8968-0.15813-3.9467-1.8062-5.0479z" stroke="#F5A623" stroke-linecap="round" stroke-linejoin="round" stroke-width="2"/><circle cx="4.5" cy="17.5" r="3.5" fill="#FFD93E" fill-rule="nonzero"/></g></g></g></g></g></g></svg>
